X:1
T:Sierra Vista, 87.87 D
T:Sierra Vista, 87.87 D
T:George Coles Stebbins, 1901
T:Public Domain Courtesy of the Cyber Hymnal™
C:George Coles Stebbins, 1901
Z:Public Domain
Z:Courtesy of the Cyber Hymnal™
%%score ( 1 2 ) ( 3 4 )
L:1/8
Q:1/4=107
M:6/8
K:C
V:1 treble 
V:2 treble 
V:3 bass 
V:4 bass 
V:1
 [EG]2 [EA] [EG]2 [EG] | [FG]2 [FA] [FG]2 [FG] | G2 [Ec] G2 [EA] | [CE]2 [EG] [FG]3 | %4
 [EG]2 [E_B] [FA]2 [GA] | [^FA]2 [Fc] [GB]2 [AB] | [^GB]2 [Gd] [Ac]2 [Ae] | [^Ge]2 E E3 | %8
 [EG]2 [Ge] [Fd]2 [FA] | [FB]2 [Fd] [Ec]2 [EG] | [FA]2 [Fc] G2 [Gc] | (cB)[=Fc] [Fd]3 | %12
 [Ge]2 [Ge] [Fd]2 [FG] | [Ec]2 [Ec] [EB]2 [DE] | [CA]2 [FA] (Gc)[Af] | [Ge]2 [Fd] [Ec]3 |] %16
V:2
 x6 | x6 | G2 G2 x2 | x6 | x6 | x6 | x6 | x2 E E3 | x6 | x6 | x3 G2 x | ^F2 x4 | x6 | x6 | %14
 x3 G2 x | x6 |] %16
V:3
 [C,C]2 [G,,C] [C,C]2 [^C,^A,] | [D,B,]2 [G,,B,] [D,B,]2 [^D,B,] | [E,C]2 [G,,G,C] [E,C]2 [C,G,] | %3
 [A,,A,]2 [A,,C] [B,,D]3 | [C,C]2 [C,C] [F,C]2 [E,^C] | [D,D]2 [D,D] [G,D]2 [F,^D] | %6
 [E,E]2 [E,E] [A,E]2 [A,C] | [E,B,]2 [E,^G,] [E,G,]3 | [C,_B,]2 [C,B,] [C,A,]2 [C,A,] | %9
 [C,_A,]2 [C,A,] [C,G,]2 [C,C] | [F,C]2 [F,A,] [E,C]2 [E,C] | [D,A,]2 [D,A,] C2 B, | %12
 C2 C [G,B,]2 [G,B,] | A,2 A, [^E,^G,]2 [E,G,] | [F,A,]2 [F,C] [E,C]2 [D,C] | %15
 [G,C]2 [G,B,] [C,C]3 |] %16
V:4
 x6 | x6 | x6 | x6 | x6 | x6 | x6 | x6 | x6 | x6 | x6 | x3 G,3 | C2 C x3 | A,2 A, x3 | x6 | x6 |] %16

